FINK
CUT[SO ZIEHEN WIR SCHEIDEND ZUM THORE HINAUS]
REG[Europa, Mitteleuropa, Deutschland]
KEY[F1100  08  A 3/4]
MEL[-5_  3_.21_  -5_.-6-5_  -5_.-6-71  2__
    -5_  4_3_2_  1_-7_-6_  -5_3_2_  1__
    -5-7  2_.32_  2_.32_  2_5_4_  3__
    12  3_2_3_  4_-6_2_  1_3_2_  1__
    -5-7  2_.32_  2_.32_  2_5_4_  3__
    12  3_2_3_  4_-6_2_  1_3_2_  1__ //] >>
FCT[Kriegs - Lied, national, Abschied]
